photography/img/main/linkedin.svg

<svg width="19" height="19" viewBox="0 0 19 19" fill="none" xmlns="http://www.w3.org/2000/svg">
<path d="M5.69997 7.60003V13.9334M13.3 13.9334V10.7667C13.3 9.36757 12.1658 8.23336 10.7666 8.23336C9.36751 8.23336 8.2333 9.36757 8.2333 10.7667V13.9334V7.60003M5.06663 5.70003H6.3333M1.89997 0.633362H17.1C17.7995 0.633362 18.3666 1.20047 18.3666 1.90003V17.1C18.3666 17.7996 17.7995 18.3667 17.1 18.3667H1.89997C1.20041 18.3667 0.633301 17.7996 0.633301 17.1V1.90003C0.633301 1.20047 1.20041 0.633362 1.89997 0.633362Z" stroke="#171719"/>
</svg>

<svg width="19" height="19" fill="none" xmlns="http://www.w3.org/2000/svg"><path d="M5.7 7.6v6.333m7.6 0v-3.166a2.533 2.533 0 00-5.067 0v3.166V7.6M5.067 5.7h1.266M1.9.633h15.2c.7 0 1.267.567 1.267 1.267v15.2c0 .7-.568 1.267-1.267 1.267H1.9c-.7 0-1.267-.567-1.267-1.267V1.9C.633 1.2 1.2.633 1.9.633z" stroke="#171719"/></svg>
